X: 31
T: The Harsh February
C:Phil Cunningham
M:C
L:1/8
K:BMin
|:FABd B2 AF| ABdf e2 de| f2 ed BddB| ABdD FEDE|
FABd B2 AF| ABdf e2 de| f2 ed bafb|1 afef d4 :|2 afef d2 fa|
|b3 f a2 fe| ddde edBA| FABd ABdb|afde fefa|
bdgb aAfe| ddde edBA| FABd ABdb| afef d2 fa|
bd (3ddd aA (3AAA| ddde edBA| FABd ABdb| afde fefa|
bdgb aAfe| ddde edBA| FABd ABdb| afef d2 z2 ||

%%sep 2 1 500

